public/resources/images/svg/icon-restart.svg

<svg width="16" height="16" viewBox="0 0 16 16" fill="none" xmlns="http://www.w3.org/2000/svg">
<path d="M7.33366 13.9666C5.98921 13.8 4.87544 13.2137 3.99233 12.208C3.10877 11.2026 2.66699 10.0222 2.66699 8.66663C2.66699 7.93329 2.81144 7.2304 3.10033 6.55796C3.38921 5.88596 3.80033 5.29996 4.33366 4.79996L5.28366 5.74996C4.86144 6.12774 4.5421 6.56663 4.32566 7.06663C4.10877 7.56663 4.00033 8.09996 4.00033 8.66663C4.00033 9.6444 4.31144 10.5082 4.93366 11.258C5.55588 12.0082 6.35588 12.4666 7.33366 12.6333V13.9666ZM8.66699 13.9666V12.6333C9.63366 12.4555 10.4308 11.9944 11.0583 11.25C11.6863 10.5055 12.0003 9.6444 12.0003 8.66663C12.0003 7.55551 11.6114 6.61107 10.8337 5.83329C10.0559 5.05551 9.11144 4.66663 8.00033 4.66663H7.95033L8.68366 5.39996L7.75033 6.33329L5.41699 3.99996L7.75033 1.66663L8.68366 2.59996L7.95033 3.33329H8.00033C9.48921 3.33329 10.7503 3.84996 11.7837 4.88329C12.817 5.91663 13.3337 7.17774 13.3337 8.66663C13.3337 10.0111 12.8921 11.1862 12.009 12.192C11.1254 13.1973 10.0114 13.7888 8.66699 13.9666Z" fill="#646669"/>
</svg>

<svg width="16" height="16" fill="none" xmlns="http://www.w3.org/2000/svg"><path d="M7.334 13.967c-1.345-.167-2.459-.753-3.342-1.759-.883-1.005-1.325-2.186-1.325-3.541A5.288 5.288 0 014.334 4.8l.95.95a3.753 3.753 0 00-.958 1.317A3.977 3.977 0 004 8.667c0 .977.311 1.841.934 2.591.622.75 1.422 1.209 2.4 1.375v1.334zm1.333 0v-1.334a3.977 3.977 0 002.391-1.383A3.888 3.888 0 0012 8.667c0-1.111-.389-2.056-1.166-2.834C10.056 5.056 9.11 4.667 8 4.667h-.05l.734.733-.934.933L5.417 4 7.75 1.667l.934.933-.734.733H8c1.49 0 2.75.517 3.784 1.55 1.033 1.034 1.55 2.295 1.55 3.784 0 1.344-.442 2.52-1.325 3.525-.884 1.005-1.998 1.597-3.342 1.775z" fill="#646669"/></svg>
